Adwaita++-Light/panel/16/network-wireless-secure-signal-excellent.svg

<svg height="16" width="16" xmlns="http://www.w3.org/2000/svg">
  <path d="m8.029 2 .002.002c-3.0341 0-5.7657 1.2693-8.031 3.0136l8.031 8.9844.969-1.096v-1.904h1.014c.019-1.635 1.342-3 2.986-3 .105 0 .204.02.307.031l2.693-3.0466c-2.258-1.7216-4.96-2.9844-7.971-2.9844zm4.971 7c-1.108 0-2 .911-2 2.031v.969h-1v4h6v-4h-1v-.969c0-1.12-.892-2.031-2-2.031zm0 1c.554 0 1 .442 1 1v1h-2v-1c0-.558.446-1 1-1z" fill="#444"/>
</svg>

<svg xmlns="http://www.w3.org/2000/svg" width="16" height="16" version="1.1">
 <defs>
  <style id="current-color-scheme" type="text/css">
   .ColorScheme-Text { color:#444444; } .ColorScheme-Highlight { color:#4285f4; }
  </style>
 </defs>
 <path style="fill:currentColor" class="ColorScheme-Text" d="M 8.029,2 8.031,2.002 C 4.9969,2.002 2.2653,3.2713 0,5.0156 L 8.031,14 9,12.904 V 11 H 10.014 C 10.033,9.365 11.356,8 13,8 13.105,8 13.204,8.02 13.307,8.031 L 16,4.9844 C 13.742,3.2628 11.04,2 8.029,2 Z M 13,9 C 11.892,9 11,9.911 11,11.031 V 12 H 10 V 16 H 16 V 12 H 15 V 11.031 C 15,9.911 14.108,9 13,9 Z M 13,10 C 13.554,10 14,10.442 14,11 V 12 H 12 V 11 C 12,10.442 12.446,10 13,10 Z"/>
</svg>
